images/50386240.svg

<?xml version="1.0" encoding="UTF-8"?>
<svg xmlns="http://www.w3.org/2000/svg" xmlns:xlink="http://www.w3.org/1999/xlink" width="300pt" height="300pt" viewBox="0 0 300 300" version="1.1">
<defs>
<g>
<symbol overflow="visible" id="glyph0-0">
<path style="stroke:none;" d="M 0.453125 1.59375 L 0.453125 -6.34375 L 4.953125 -6.34375 L 4.953125 1.59375 Z M 0.953125 1.09375 L 4.453125 1.09375 L 4.453125 -5.84375 L 0.953125 -5.84375 Z M 0.953125 1.09375 "/>
</symbol>
<symbol overflow="visible" id="glyph0-1">
<path style="stroke:none;" d="M 0.890625 -6.5625 L 2.078125 -6.5625 L 4.984375 -1.078125 L 4.984375 -6.5625 L 5.84375 -6.5625 L 5.84375 0 L 4.65625 0 L 1.75 -5.484375 L 1.75 0 L 0.890625 0 Z M 0.890625 -6.5625 "/>
</symbol>
<symbol overflow="visible" id="glyph0-2">
<path style="stroke:none;" d="M 3.546875 -5.953125 C 2.898438 -5.953125 2.382812 -5.710938 2 -5.234375 C 1.625 -4.753906 1.4375 -4.101562 1.4375 -3.28125 C 1.4375 -2.445312 1.625 -1.789062 2 -1.3125 C 2.382812 -0.832031 2.898438 -0.59375 3.546875 -0.59375 C 4.191406 -0.59375 4.703125 -0.832031 5.078125 -1.3125 C 5.453125 -1.789062 5.640625 -2.445312 5.640625 -3.28125 C 5.640625 -4.101562 5.453125 -4.753906 5.078125 -5.234375 C 4.703125 -5.710938 4.191406 -5.953125 3.546875 -5.953125 Z M 3.546875 -6.6875 C 4.460938 -6.6875 5.195312 -6.375 5.75 -5.75 C 6.300781 -5.132812 6.578125 -4.3125 6.578125 -3.28125 C 6.578125 -2.238281 6.300781 -1.410156 5.75 -0.796875 C 5.195312 -0.179688 4.460938 0.125 3.546875 0.125 C 2.617188 0.125 1.878906 -0.179688 1.328125 -0.796875 C 0.773438 -1.410156 0.5 -2.238281 0.5 -3.28125 C 0.5 -4.3125 0.773438 -5.132812 1.328125 -5.75 C 1.878906 -6.375 2.617188 -6.6875 3.546875 -6.6875 Z M 3.546875 -6.6875 "/>
</symbol>
</g>
</defs>
<g id="surface4005">
<rect x="0" y="0" width="300" height="300" style="fill:rgb(100%,100%,100%);fill-opacity:1;stroke:none;"/>
<path style="fill:none;stroke-width:1.2;stroke-linecap:butt;stroke-linejoin:miter;stroke:rgb(0%,0%,0%);stroke-opacity:1;stroke-miterlimit:10;" d="M 213.074219 231.75 L 195.3125 221.726562 "/>
<path style="fill:none;stroke-width:1.2;stroke-linecap:butt;stroke-linejoin:miter;stroke:rgb(0%,0%,0%);stroke-opacity:1;stroke-miterlimit:10;" d="M 213.65625 226.566406 L 199.445312 218.550781 "/>
<path style="fill:none;stroke-width:1.2;stroke-linecap:butt;stroke-linejoin:miter;stroke:rgb(0%,0%,0%);stroke-opacity:1;stroke-miterlimit:10;" d="M 230.632812 221.378906 L 213.074219 231.75 "/>
<path style="fill:none;stroke-width:1.2;stroke-linecap:butt;stroke-linejoin:miter;stroke:rgb(0%,0%,0%);stroke-opacity:1;stroke-miterlimit:10;" d="M 195.3125 221.726562 L 195.109375 201.332031 "/>
<path style="fill:none;stroke-width:1.2;stroke-linecap:butt;stroke-linejoin:miter;stroke:rgb(0%,0%,0%);stroke-opacity:1;stroke-miterlimit:10;" d="M 195.109375 201.332031 L 212.671875 190.960938 "/>
<path style="fill:none;stroke-width:1.2;stroke-linecap:butt;stroke-linejoin:miter;stroke:rgb(0%,0%,0%);stroke-opacity:1;stroke-miterlimit:10;" d="M 194.425781 196.164062 L 208.472656 187.867188 "/>
<path style="fill:none;stroke-width:1.2;stroke-linecap:butt;stroke-linejoin:miter;stroke:rgb(0%,0%,0%);stroke-opacity:1;stroke-miterlimit:10;" d="M 177.347656 191.308594 L 195.109375 201.332031 "/>
<path style="fill:none;stroke-width:1.2;stroke-linecap:butt;stroke-linejoin:miter;stroke:rgb(0%,0%,0%);stroke-opacity:1;stroke-miterlimit:10;" d="M 212.671875 190.960938 L 212.46875 170.566406 "/>
<path style="fill:none;stroke-width:1.2;stroke-linecap:butt;stroke-linejoin:miter;stroke:rgb(0%,0%,0%);stroke-opacity:1;stroke-miterlimit:10;" d="M 212.671875 190.960938 L 230.433594 200.984375 "/>
<path style="fill:none;stroke-width:1.2;stroke-linecap:butt;stroke-linejoin:miter;stroke:rgb(0%,0%,0%);stroke-opacity:1;stroke-miterlimit:10;" d="M 212.46875 170.566406 L 203.589844 165.558594 "/>
<path style="fill:none;stroke-width:1.2;stroke-linecap:butt;stroke-linejoin:miter;stroke:rgb(0%,0%,100%);stroke-opacity:1;stroke-miterlimit:10;" d="M 203.589844 165.558594 L 194.707031 160.546875 "/>
<path style="fill:none;stroke-width:1.2;stroke-linecap:butt;stroke-linejoin:miter;stroke:rgb(0%,0%,100%);stroke-opacity:1;stroke-miterlimit:10;" d="M 194.707031 160.546875 L 194.605469 150.347656 "/>
<path style="fill:none;stroke-width:1.2;stroke-linecap:butt;stroke-linejoin:miter;stroke:rgb(0%,0%,0%);stroke-opacity:1;stroke-miterlimit:10;" d="M 194.605469 150.347656 L 194.507812 140.152344 "/>
<path style="fill:none;stroke-width:1.2;stroke-linecap:butt;stroke-linejoin:miter;stroke:rgb(0%,0%,100%);stroke-opacity:1;stroke-miterlimit:10;" d="M 194.707031 160.546875 L 185.925781 165.730469 "/>
<path style="fill:none;stroke-width:1.2;stroke-linecap:butt;stroke-linejoin:miter;stroke:rgb(0%,0%,0%);stroke-opacity:1;stroke-miterlimit:10;" d="M 185.925781 165.730469 L 177.144531 170.917969 "/>
<path style=" stroke:none;fill-rule:nonzero;fill:rgb(100%,100%,100%);fill-opacity:1;" d="M 191.707031 155.046875 L 198.707031 155.046875 L 198.707031 166.046875 L 191.707031 166.046875 Z M 191.707031 155.046875 "/>
<g style="fill:rgb(0%,0%,100%);fill-opacity:1;">
  <use xlink:href="#glyph0-1" x="191.707031" y="163.709961"/>
</g>
<path style="fill:none;stroke-width:1.2;stroke-linecap:butt;stroke-linejoin:miter;stroke:rgb(0%,0%,0%);stroke-opacity:1;stroke-miterlimit:10;" d="M 195.683594 138.0625 L 186.804688 133.050781 "/>
<path style="fill:none;stroke-width:1.2;stroke-linecap:butt;stroke-linejoin:miter;stroke:rgb(100%,0%,0%);stroke-opacity:1;stroke-miterlimit:10;" d="M 186.804688 133.050781 L 177.921875 128.039062 "/>
<path style="fill:none;stroke-width:1.2;stroke-linecap:butt;stroke-linejoin:miter;stroke:rgb(0%,0%,0%);stroke-opacity:1;stroke-miterlimit:10;" d="M 193.328125 142.242188 L 184.445312 137.230469 "/>
<path style="fill:none;stroke-width:1.2;stroke-linecap:butt;stroke-linejoin:miter;stroke:rgb(100%,0%,0%);stroke-opacity:1;stroke-miterlimit:10;" d="M 184.445312 137.230469 L 175.566406 132.21875 "/>
<path style="fill:none;stroke-width:1.2;stroke-linecap:butt;stroke-linejoin:miter;stroke:rgb(0%,0%,0%);stroke-opacity:1;stroke-miterlimit:10;" d="M 194.507812 140.152344 L 203.285156 134.964844 "/>
<path style="fill:none;stroke-width:1.2;stroke-linecap:butt;stroke-linejoin:miter;stroke:rgb(100%,0%,0%);stroke-opacity:1;stroke-miterlimit:10;" d="M 203.285156 134.964844 L 212.066406 129.78125 "/>
<path style=" stroke:none;fill-rule:nonzero;fill:rgb(100%,100%,100%);fill-opacity:1;" d="M 168.742188 124.628906 L 176.742188 124.628906 L 176.742188 135.628906 L 168.742188 135.628906 Z M 168.742188 124.628906 "/>
<g style="fill:rgb(100%,0%,0%);fill-opacity:1;">
  <use xlink:href="#glyph0-2" x="168.742188" y="133.291992"/>
</g>
<path style="fill:none;stroke-width:1.2;stroke-linecap:butt;stroke-linejoin:miter;stroke:rgb(100%,0%,0%);stroke-opacity:1;stroke-miterlimit:10;" d="M 212.066406 129.78125 L 211.964844 119.582031 "/>
<path style="fill:none;stroke-width:1.2;stroke-linecap:butt;stroke-linejoin:miter;stroke:rgb(0%,0%,0%);stroke-opacity:1;stroke-miterlimit:10;" d="M 211.964844 119.582031 L 211.867188 109.386719 "/>
<path style=" stroke:none;fill-rule:nonzero;fill:rgb(100%,100%,100%);fill-opacity:1;" d="M 208.066406 124.28125 L 216.066406 124.28125 L 216.066406 135.28125 L 208.066406 135.28125 Z M 208.066406 124.28125 "/>
<g style="fill:rgb(100%,0%,0%);fill-opacity:1;">
  <use xlink:href="#glyph0-2" x="208.066406" y="132.944336"/>
</g>
<path style="fill:none;stroke-width:1.2;stroke-linecap:butt;stroke-linejoin:miter;stroke:rgb(0%,0%,0%);stroke-opacity:1;stroke-miterlimit:10;" d="M 211.867188 109.386719 L 229.425781 99.015625 "/>
<path style="fill:none;stroke-width:1.2;stroke-linecap:butt;stroke-linejoin:miter;stroke:rgb(0%,0%,0%);stroke-opacity:1;stroke-miterlimit:10;" d="M 229.425781 99.015625 L 247.1875 109.039062 "/>
<path style="fill:none;stroke-width:1.2;stroke-linecap:butt;stroke-linejoin:miter;stroke:rgb(0%,0%,0%);stroke-opacity:1;stroke-miterlimit:10;" d="M 233.5625 95.839844 L 247.769531 103.855469 "/>
<path style="fill:none;stroke-width:1.2;stroke-linecap:butt;stroke-linejoin:miter;stroke:rgb(0%,0%,0%);stroke-opacity:1;stroke-miterlimit:10;" d="M 229.226562 78.621094 L 229.425781 99.015625 "/>
<path style="fill:none;stroke-width:1.2;stroke-linecap:butt;stroke-linejoin:miter;stroke:rgb(0%,0%,0%);stroke-opacity:1;stroke-miterlimit:10;" d="M 247.1875 109.039062 L 264.75 98.667969 "/>
<path style="fill:none;stroke-width:1.2;stroke-linecap:butt;stroke-linejoin:miter;stroke:rgb(0%,0%,0%);stroke-opacity:1;stroke-miterlimit:10;" d="M 264.75 98.667969 L 264.546875 78.273438 "/>
<path style="fill:none;stroke-width:1.2;stroke-linecap:butt;stroke-linejoin:miter;stroke:rgb(0%,0%,0%);stroke-opacity:1;stroke-miterlimit:10;" d="M 259.929688 96.675781 L 259.769531 80.359375 "/>
<path style="fill:none;stroke-width:1.2;stroke-linecap:butt;stroke-linejoin:miter;stroke:rgb(0%,0%,0%);stroke-opacity:1;stroke-miterlimit:10;" d="M 264.546875 78.273438 L 246.785156 68.25 "/>
<path style="fill:none;stroke-width:1.2;stroke-linecap:butt;stroke-linejoin:miter;stroke:rgb(0%,0%,0%);stroke-opacity:1;stroke-miterlimit:10;" d="M 246.785156 68.25 L 229.226562 78.621094 "/>
<path style="fill:none;stroke-width:1.2;stroke-linecap:butt;stroke-linejoin:miter;stroke:rgb(0%,0%,0%);stroke-opacity:1;stroke-miterlimit:10;" d="M 247.472656 73.417969 L 233.421875 81.714844 "/>
<path style=" stroke:none;fill-rule:nonzero;fill:rgb(0%,0%,0%);fill-opacity:1;" d="M 177.144531 170.917969 L 161.152344 157.757812 L 157.617188 164.027344 Z M 177.144531 170.917969 "/>
<path style="fill:none;stroke-width:1.2;stroke-linecap:butt;stroke-linejoin:miter;stroke:rgb(0%,0%,0%);stroke-opacity:1;stroke-miterlimit:10;" d="M 177.144531 170.917969 L 177.347656 191.308594 "/>
<path style="fill:none;stroke-width:1.2;stroke-linecap:butt;stroke-linejoin:miter;stroke:rgb(0%,0%,0%);stroke-opacity:1;stroke-miterlimit:10;" d="M 159.382812 160.894531 L 150.605469 166.078125 "/>
<path style="fill:none;stroke-width:1.2;stroke-linecap:butt;stroke-linejoin:miter;stroke:rgb(0%,0%,100%);stroke-opacity:1;stroke-miterlimit:10;" d="M 150.605469 166.078125 L 141.824219 171.265625 "/>
<path style="fill:none;stroke-width:1.2;stroke-linecap:butt;stroke-linejoin:miter;stroke:rgb(0%,0%,0%);stroke-opacity:1;stroke-miterlimit:10;" d="M 161.785156 160.871094 L 161.683594 150.671875 "/>
<path style="fill:none;stroke-width:1.2;stroke-linecap:butt;stroke-linejoin:miter;stroke:rgb(100%,0%,0%);stroke-opacity:1;stroke-miterlimit:10;" d="M 161.683594 150.671875 L 161.582031 140.476562 "/>
<path style="fill:none;stroke-width:1.2;stroke-linecap:butt;stroke-linejoin:miter;stroke:rgb(0%,0%,0%);stroke-opacity:1;stroke-miterlimit:10;" d="M 156.984375 160.917969 L 156.882812 150.722656 "/>
<path style="fill:none;stroke-width:1.2;stroke-linecap:butt;stroke-linejoin:miter;stroke:rgb(100%,0%,0%);stroke-opacity:1;stroke-miterlimit:10;" d="M 156.882812 150.722656 L 156.785156 140.523438 "/>
<path style="fill:none;stroke-width:1.2;stroke-linecap:butt;stroke-linejoin:miter;stroke:rgb(0%,0%,100%);stroke-opacity:1;stroke-miterlimit:10;" d="M 141.824219 171.265625 L 141.925781 181.460938 "/>
<path style="fill:none;stroke-width:1.2;stroke-linecap:butt;stroke-linejoin:miter;stroke:rgb(0%,0%,0%);stroke-opacity:1;stroke-miterlimit:10;" d="M 141.925781 181.460938 L 142.023438 191.660156 "/>
<path style="fill:none;stroke-width:1.2;stroke-linecap:butt;stroke-linejoin:miter;stroke:rgb(0%,0%,100%);stroke-opacity:1;stroke-miterlimit:10;" d="M 141.824219 171.265625 L 132.941406 166.253906 "/>
<path style="fill:none;stroke-width:1.2;stroke-linecap:butt;stroke-linejoin:miter;stroke:rgb(0%,0%,0%);stroke-opacity:1;stroke-miterlimit:10;" d="M 132.941406 166.253906 L 124.0625 161.242188 "/>
<path style=" stroke:none;fill-rule:nonzero;fill:rgb(100%,100%,100%);fill-opacity:1;" d="M 138.824219 165.765625 L 145.824219 165.765625 L 145.824219 176.765625 L 138.824219 176.765625 Z M 138.824219 165.765625 "/>
<g style="fill:rgb(0%,0%,100%);fill-opacity:1;">
  <use xlink:href="#glyph0-1" x="138.824219" y="174.428711"/>
</g>
<path style="fill:none;stroke-width:1.2;stroke-linecap:butt;stroke-linejoin:miter;stroke:rgb(0%,0%,0%);stroke-opacity:1;stroke-miterlimit:10;" d="M 142.023438 191.660156 L 124.464844 202.03125 "/>
<path style="fill:none;stroke-width:1.2;stroke-linecap:butt;stroke-linejoin:miter;stroke:rgb(0%,0%,0%);stroke-opacity:1;stroke-miterlimit:10;" d="M 142.023438 191.660156 L 159.785156 201.683594 "/>
<path style="fill:none;stroke-width:1.2;stroke-linecap:butt;stroke-linejoin:miter;stroke:rgb(0%,0%,0%);stroke-opacity:1;stroke-miterlimit:10;" d="M 124.0625 161.242188 L 123.859375 140.847656 "/>
<path style="fill:none;stroke-width:1.2;stroke-linecap:butt;stroke-linejoin:miter;stroke:rgb(0%,0%,0%);stroke-opacity:1;stroke-miterlimit:10;" d="M 119.242188 159.25 L 119.082031 142.933594 "/>
<path style="fill:none;stroke-width:1.2;stroke-linecap:butt;stroke-linejoin:miter;stroke:rgb(0%,0%,0%);stroke-opacity:1;stroke-miterlimit:10;" d="M 106.5 171.613281 L 124.0625 161.242188 "/>
<path style="fill:none;stroke-width:1.2;stroke-linecap:butt;stroke-linejoin:miter;stroke:rgb(0%,0%,0%);stroke-opacity:1;stroke-miterlimit:10;" d="M 123.859375 140.847656 L 106.097656 130.824219 "/>
<path style="fill:none;stroke-width:1.2;stroke-linecap:butt;stroke-linejoin:miter;stroke:rgb(0%,0%,0%);stroke-opacity:1;stroke-miterlimit:10;" d="M 106.097656 130.824219 L 88.535156 141.199219 "/>
<path style="fill:none;stroke-width:1.2;stroke-linecap:butt;stroke-linejoin:miter;stroke:rgb(0%,0%,0%);stroke-opacity:1;stroke-miterlimit:10;" d="M 106.78125 135.996094 L 92.734375 144.292969 "/>
<path style="fill:none;stroke-width:1.2;stroke-linecap:butt;stroke-linejoin:miter;stroke:rgb(0%,0%,0%);stroke-opacity:1;stroke-miterlimit:10;" d="M 88.535156 141.199219 L 79.65625 136.1875 "/>
<path style="fill:none;stroke-width:1.2;stroke-linecap:butt;stroke-linejoin:miter;stroke:rgb(0%,0%,100%);stroke-opacity:1;stroke-miterlimit:10;" d="M 79.65625 136.1875 L 70.773438 131.175781 "/>
<path style="fill:none;stroke-width:1.2;stroke-linecap:butt;stroke-linejoin:miter;stroke:rgb(0%,0%,0%);stroke-opacity:1;stroke-miterlimit:10;" d="M 88.535156 141.199219 L 88.738281 161.589844 "/>
<path style="fill:none;stroke-width:1.2;stroke-linecap:butt;stroke-linejoin:miter;stroke:rgb(0%,0%,100%);stroke-opacity:1;stroke-miterlimit:10;" d="M 70.773438 131.175781 L 70.671875 120.976562 "/>
<path style="fill:none;stroke-width:1.2;stroke-linecap:butt;stroke-linejoin:miter;stroke:rgb(0%,0%,0%);stroke-opacity:1;stroke-miterlimit:10;" d="M 70.671875 120.976562 L 70.574219 110.78125 "/>
<path style="fill:none;stroke-width:1.2;stroke-linecap:butt;stroke-linejoin:miter;stroke:rgb(0%,0%,0%);stroke-opacity:1;stroke-miterlimit:10;" d="M 53.214844 141.546875 L 61.992188 136.359375 "/>
<path style="fill:none;stroke-width:1.2;stroke-linecap:butt;stroke-linejoin:miter;stroke:rgb(0%,0%,100%);stroke-opacity:1;stroke-miterlimit:10;" d="M 61.992188 136.359375 L 70.773438 131.175781 "/>
<path style=" stroke:none;fill-rule:nonzero;fill:rgb(100%,100%,100%);fill-opacity:1;" d="M 67.773438 125.675781 L 74.773438 125.675781 L 74.773438 136.675781 L 67.773438 136.675781 Z M 67.773438 125.675781 "/>
<g style="fill:rgb(0%,0%,100%);fill-opacity:1;">
  <use xlink:href="#glyph0-1" x="67.773438" y="134.338867"/>
</g>
<path style="fill:none;stroke-width:1.2;stroke-linecap:butt;stroke-linejoin:miter;stroke:rgb(0%,0%,0%);stroke-opacity:1;stroke-miterlimit:10;" d="M 70.574219 110.78125 L 52.8125 100.757812 "/>
<path style="fill:none;stroke-width:1.2;stroke-linecap:butt;stroke-linejoin:miter;stroke:rgb(0%,0%,0%);stroke-opacity:1;stroke-miterlimit:10;" d="M 52.8125 100.757812 L 35.25 111.128906 "/>
<path style="fill:none;stroke-width:1.2;stroke-linecap:butt;stroke-linejoin:miter;stroke:rgb(0%,0%,0%);stroke-opacity:1;stroke-miterlimit:10;" d="M 35.25 111.128906 L 35.453125 131.523438 "/>
<path style="fill:none;stroke-width:1.2;stroke-linecap:butt;stroke-linejoin:miter;stroke:rgb(0%,0%,0%);stroke-opacity:1;stroke-miterlimit:10;" d="M 35.453125 131.523438 L 53.214844 141.546875 "/>
<path style="fill:none;stroke-width:1.2;stroke-linecap:butt;stroke-linejoin:miter;stroke:rgb(0%,0%,0%);stroke-opacity:1;stroke-miterlimit:10;" d="M 50.8125 141.570312 L 50.914062 151.765625 "/>
<path style="fill:none;stroke-width:1.2;stroke-linecap:butt;stroke-linejoin:miter;stroke:rgb(100%,0%,0%);stroke-opacity:1;stroke-miterlimit:10;" d="M 50.914062 151.765625 L 51.015625 161.964844 "/>
<path style="fill:none;stroke-width:1.2;stroke-linecap:butt;stroke-linejoin:miter;stroke:rgb(0%,0%,0%);stroke-opacity:1;stroke-miterlimit:10;" d="M 55.613281 141.523438 L 55.714844 151.71875 "/>
<path style="fill:none;stroke-width:1.2;stroke-linecap:butt;stroke-linejoin:miter;stroke:rgb(100%,0%,0%);stroke-opacity:1;stroke-miterlimit:10;" d="M 55.714844 151.71875 L 55.8125 161.917969 "/>
<path style=" stroke:none;fill-rule:nonzero;fill:rgb(100%,100%,100%);fill-opacity:1;" d="M 49.414062 156.441406 L 57.414062 156.441406 L 57.414062 167.441406 L 49.414062 167.441406 Z M 49.414062 156.441406 "/>
<g style="fill:rgb(100%,0%,0%);fill-opacity:1;">
  <use xlink:href="#glyph0-2" x="49.414062" y="165.104492"/>
</g>
<path style="fill:none;stroke-width:1.2;stroke-linecap:butt;stroke-linejoin:miter;stroke:rgb(0%,0%,0%);stroke-opacity:1;stroke-miterlimit:10;" d="M 88.738281 161.589844 L 106.5 171.613281 "/>
<path style="fill:none;stroke-width:1.2;stroke-linecap:butt;stroke-linejoin:miter;stroke:rgb(0%,0%,0%);stroke-opacity:1;stroke-miterlimit:10;" d="M 92.871094 158.414062 L 107.082031 166.433594 "/>
<path style=" stroke:none;fill-rule:nonzero;fill:rgb(100%,100%,100%);fill-opacity:1;" d="M 155.183594 135 L 163.183594 135 L 163.183594 146 L 155.183594 146 Z M 155.183594 135 "/>
<g style="fill:rgb(100%,0%,0%);fill-opacity:1;">
  <use xlink:href="#glyph0-2" x="155.183594" y="143.663086"/>
</g>
<path style="fill:none;stroke-width:1.2;stroke-linecap:butt;stroke-linejoin:miter;stroke:rgb(0%,0%,0%);stroke-opacity:1;stroke-miterlimit:10;" d="M 230.433594 200.984375 L 230.632812 221.378906 "/>
<path style="fill:none;stroke-width:1.2;stroke-linecap:butt;stroke-linejoin:miter;stroke:rgb(0%,0%,0%);stroke-opacity:1;stroke-miterlimit:10;" d="M 225.65625 203.070312 L 225.816406 219.386719 "/>
</g>
</svg>

<svg xmlns="http://www.w3.org/2000/svg" xmlns:xlink="http://www.w3.org/1999/xlink" width="300pt" height="300pt" viewBox="0 0 300 300"><defs><symbol overflow="visible"><path d="M.453 1.594v-7.938h4.5v7.938zm.5-.5h3.5v-6.938h-3.5zm0 0"/></symbol><symbol overflow="visible" id="a"><path d="M.89-6.563H2.08l2.906 5.485v-5.484h.86V0H4.656L1.75-5.484V0H.89zm0 0"/></symbol><symbol overflow="visible" id="b"><path d="M3.547-5.953c-.65 0-1.164.242-1.547.72-.375.48-.563 1.13-.563 1.952 0 .835.188 1.49.563 1.967.383.48.898.72 1.547.72.644 0 1.156-.24 1.53-.72.376-.476.564-1.132.564-1.968 0-.822-.187-1.474-.562-1.954-.375-.477-.887-.72-1.53-.72zm0-.734c.914 0 1.648.312 2.203.937.55.617.828 1.438.828 2.47 0 1.042-.277 1.87-.828 2.483-.555.617-1.29.922-2.203.922-.93 0-1.668-.305-2.22-.922C.774-1.41.5-2.237.5-3.28c0-1.033.273-1.853.828-2.47.55-.625 1.29-.938 2.22-.938zm0 0"/></symbol></defs><g><path fill="#fff" d="M0 0h300v300H0z"/><path d="M213.074 231.75l-17.762-10.023M213.656 226.566l-14.21-8.015M230.633 221.38l-17.56 10.37M195.313 221.727l-.204-20.395M195.11 201.332l17.562-10.37M194.426 196.164l14.047-8.297M177.348 191.31l17.76 10.022M212.672 190.96l-.203-20.394M212.672 190.96l17.762 10.024M212.47 170.566l-8.88-5.007" stroke-width="1.2" stroke="#000" stroke-miterlimit="10" fill="none"/><path d="M203.59 165.56l-8.883-5.013M194.707 160.547l-.102-10.2" stroke-width="1.2" stroke="#00f" stroke-miterlimit="10" fill="none"/><path d="M194.605 150.348l-.097-10.196" stroke-width="1.2" stroke="#000" stroke-miterlimit="10" fill="none"/><path d="M194.707 160.547l-8.78 5.183" stroke-width="1.2" stroke="#00f" stroke-miterlimit="10" fill="none"/><path d="M185.926 165.73l-8.78 5.188" stroke-width="1.2" stroke="#000" stroke-miterlimit="10" fill="none"/><path d="M191.707 155.047h7v11h-7zm0 0" fill="#fff"/><use xlink:href="#a" x="191.707" y="163.71" fill="#00f"/><path d="M195.684 138.063l-8.88-5.012" stroke-width="1.2" stroke="#000" stroke-miterlimit="10" fill="none"/><path d="M186.805 133.05l-8.883-5.01" stroke-width="1.2" stroke="#f00" stroke-miterlimit="10" fill="none"/><path d="M193.328 142.242l-8.883-5.012" stroke-width="1.2" stroke="#000" stroke-miterlimit="10" fill="none"/><path d="M184.445 137.23l-8.88-5.01" stroke-width="1.2" stroke="#f00" stroke-miterlimit="10" fill="none"/><path d="M194.508 140.152l8.777-5.187" stroke-width="1.2" stroke="#000" stroke-miterlimit="10" fill="none"/><path d="M203.285 134.965l8.78-5.184" stroke-width="1.2" stroke="#f00" stroke-miterlimit="10" fill="none"/><path d="M168.742 124.63h8v11h-8zm0 0" fill="#fff"/><use xlink:href="#b" x="168.742" y="133.292" fill="#f00"/><path d="M212.066 129.78l-.1-10.198" stroke-width="1.2" stroke="#f00" stroke-miterlimit="10" fill="none"/><path d="M211.965 119.582l-.098-10.195" stroke-width="1.2" stroke="#000" stroke-miterlimit="10" fill="none"/><path d="M208.066 124.28h8v11h-8zm0 0" fill="#fff"/><use xlink:href="#b" x="208.066" y="132.944" fill="#f00"/><path d="M211.867 109.387l17.56-10.37M229.426 99.016l17.762 10.023M233.563 95.84l14.207 8.015M229.227 78.62l.2 20.396M247.188 109.04l17.562-10.372M264.75 98.668l-.203-20.395M259.93 96.676l-.16-16.317M264.547 78.273L246.785 68.25M246.785 68.25l-17.558 10.37M247.473 73.418l-14.05 8.297" stroke-width="1.2" stroke="#000" stroke-miterlimit="10" fill="none"/><path d="M177.145 170.918l-15.993-13.16-3.535 6.27zm0 0"/><path d="M177.145 170.918l.203 20.39M159.383 160.895l-8.778 5.183" stroke-width="1.2" stroke="#000" stroke-miterlimit="10" fill="none"/><path d="M150.605 166.078l-8.78 5.188" stroke-width="1.2" stroke="#00f" stroke-miterlimit="10" fill="none"/><path d="M161.785 160.87l-.1-10.198" stroke-width="1.2" stroke="#000" stroke-miterlimit="10" fill="none"/><path d="M161.684 150.672l-.102-10.195" stroke-width="1.2" stroke="#f00" stroke-miterlimit="10" fill="none"/><path d="M156.984 160.918l-.1-10.195" stroke-width="1.2" stroke="#000" stroke-miterlimit="10" fill="none"/><path d="M156.883 150.723l-.098-10.2" stroke-width="1.2" stroke="#f00" stroke-miterlimit="10" fill="none"/><path d="M141.824 171.266l.102 10.195" stroke-width="1.2" stroke="#00f" stroke-miterlimit="10" fill="none"/><path d="M141.926 181.46l.097 10.2" stroke-width="1.2" stroke="#000" stroke-miterlimit="10" fill="none"/><path d="M141.824 171.266l-8.883-5.012" stroke-width="1.2" stroke="#00f" stroke-miterlimit="10" fill="none"/><path d="M132.94 166.254l-8.877-5.012" stroke-width="1.2" stroke="#000" stroke-miterlimit="10" fill="none"/><path d="M138.824 165.766h7v11h-7zm0 0" fill="#fff"/><use xlink:href="#a" x="138.824" y="174.429" fill="#00f"/><path d="M142.023 191.66l-17.558 10.37M142.023 191.66l17.762 10.024M124.063 161.242l-.204-20.394M119.242 159.25l-.16-16.316M106.5 171.613l17.563-10.37M123.86 140.848l-17.762-10.024M106.098 130.824L88.535 141.2M106.78 135.996l-14.046 8.297M88.535 141.2l-8.88-5.012" stroke-width="1.2" stroke="#000" stroke-miterlimit="10" fill="none"/><path d="M79.656 136.188l-8.883-5.012" stroke-width="1.2" stroke="#00f" stroke-miterlimit="10" fill="none"/><path d="M88.535 141.2l.203 20.39" stroke-width="1.2" stroke="#000" stroke-miterlimit="10" fill="none"/><path d="M70.773 131.176l-.1-10.2" stroke-width="1.2" stroke="#00f" stroke-miterlimit="10" fill="none"/><path d="M70.672 120.977l-.098-10.196M53.215 141.547l8.777-5.188" stroke-width="1.2" stroke="#000" stroke-miterlimit="10" fill="none"/><path d="M61.992 136.36l8.78-5.184" stroke-width="1.2" stroke="#00f" stroke-miterlimit="10" fill="none"/><path d="M67.773 125.676h7v11h-7zm0 0" fill="#fff"/><use xlink:href="#a" x="67.773" y="134.339" fill="#00f"/><path d="M70.574 110.78l-17.76-10.022M52.813 100.758l-17.563 10.37M35.25 111.13l.203 20.393M35.453 131.523l17.762 10.024M50.813 141.57l.1 10.196" stroke-width="1.2" stroke="#000" stroke-miterlimit="10" fill="none"/><path d="M50.914 151.766l.102 10.2" stroke-width="1.2" stroke="#f00" stroke-miterlimit="10" fill="none"/><path d="M55.613 141.523l.102 10.196" stroke-width="1.2" stroke="#000" stroke-miterlimit="10" fill="none"/><path d="M55.715 151.72l.097 10.198" stroke-width="1.2" stroke="#f00" stroke-miterlimit="10" fill="none"/><path d="M49.414 156.44h8v11h-8zm0 0" fill="#fff"/><use xlink:href="#b" x="49.414" y="165.104" fill="#f00"/><path d="M88.738 161.59l17.762 10.023M92.87 158.414l14.212 8.02" stroke-width="1.2" stroke="#000" stroke-miterlimit="10" fill="none"/><path d="M155.184 135h8v11h-8zm0 0" fill="#fff"/><use xlink:href="#b" x="155.184" y="143.663" fill="#f00"/><path d="M230.434 200.984l.2 20.395M225.656 203.07l.16 16.317" stroke-width="1.2" stroke="#000" stroke-miterlimit="10" fill="none"/></g></svg>
